packages/ui-icons/svg/Line/cloud-download.svg

<svg viewBox="0 0 1920 1920" version="1.1" xmlns="http://www.w3.org/2000/svg">
    <path d="M1016.47059,903.047529 L1016.47059,1613.78635 L1202.37176,1427.88518 L1282.33412,1507.73459 L960,1829.95576 L637.665882,1507.73459 L717.628235,1427.88518 L903.529412,1613.78635 L903.529412,903.047529 L1016.47059,903.047529 Z M960,56 C1181.81647,56 1368.84706,199.661176 1438.08,398.211765 C1448.13176,397.534118 1458.07059,394.823529 1468.23529,394.823529 C1717.38353,394.823529 1920,597.44 1920,846.588235 C1920,1095.73647 1717.38353,1298.35294 1468.23529,1298.35294 L1468.23529,1298.35294 L1355.29412,1298.35294 L1355.29412,1185.41176 L1468.23529,1185.41176 C1655.04,1185.41176 1807.05882,1033.39294 1807.05882,846.588235 C1807.05882,659.783529 1655.04,507.764706 1468.23529,507.764706 C1466.31529,507.764706 1464.50824,508.329412 1462.58824,508.442353 C1464.73412,526.964706 1468.23529,545.148235 1468.23529,564.235294 C1468.23529,608.395294 1462.47529,652.329412 1451.29412,694.908235 L1451.29412,694.908235 L1342.08,665.995294 C1350.88941,632.790588 1355.29412,598.569412 1355.29412,564.235294 C1355.29412,346.258824 1177.97647,168.941176 960,168.941176 C747.557647,168.941176 574.870588,337.901176 566.4,548.310588 C604.574118,566.72 640.602353,590.098824 671.774118,620.592941 L671.774118,620.592941 L592.828235,701.345882 C539.745882,649.28 469.609412,620.705882 395.294118,620.705882 C239.548235,620.705882 112.941176,747.425882 112.941176,903.058824 C112.941176,1058.80471 239.548235,1185.41176 395.294118,1185.41176 L395.294118,1185.41176 L564.705882,1185.41176 L564.705882,1298.35294 L395.294118,1298.35294 C177.317647,1298.35294 0,1121.03529 0,903.058824 C0,685.082353 177.317647,507.764706 395.294118,507.764706 C416.188235,507.764706 436.517647,510.475294 456.847059,513.750588 C482.597647,257.487059 697.072941,56 960,56 Z" stroke="none" stroke-width="1" fill-rule="evenodd"/>
</svg>

<svg viewBox="0 0 1920 1920" xmlns="http://www.w3.org/2000/svg">
    <path d="M1016.47 903.048v710.738l185.902-185.9 79.962 79.849L960 1829.955l-322.334-322.22 79.962-79.85 185.901 185.901V903.048h112.942ZM960 56c221.816 0 408.847 143.661 478.08 342.212 10.052-.678 19.99-3.388 30.155-3.388 249.149 0 451.765 202.616 451.765 451.764s-202.616 451.765-451.765 451.765h-112.94v-112.941h112.94c186.805 0 338.824-152.02 338.824-338.824s-152.019-338.823-338.824-338.823c-1.92 0-3.727.564-5.647.677 2.146 18.523 5.647 36.706 5.647 55.793 0 44.16-5.76 88.094-16.94 130.673l-109.215-28.913c8.81-33.204 13.214-67.426 13.214-101.76 0-217.976-177.318-395.294-395.294-395.294-212.442 0-385.13 168.96-393.6 379.37 38.174 18.409 74.202 41.788 105.374 72.282l-78.946 80.753c-53.082-52.066-123.219-80.64-197.534-80.64-155.746 0-282.353 126.72-282.353 282.353 0 155.746 126.607 282.353 282.353 282.353h169.412v112.94H395.294C177.318 1298.353 0 1121.036 0 903.06c0-217.977 177.318-395.294 395.294-395.294 20.894 0 41.224 2.71 61.553 5.986C482.597 257.487 697.073 56 960 56Z" fill-rule="evenodd"/>
</svg>
